src/pos-icons/archive.svg

<svg height="24" viewBox="0 0 24 24" width="24" xmlns="http://www.w3.org/2000/svg"><path d="m3 3h18v4h-18zm1 5h16v13h-16zm5.5 3a.5.5 0 0 0 -.5.5v1.5h6v-1.5a.5.5 0 0 0 -.5-.5z"/></svg>

<?xml version="1.0" encoding="UTF-8"?><!DOCTYPE svg PUBLIC "-//W3C//DTD SVG 1.1//EN" "http://www.w3.org/Graphics/SVG/1.1/DTD/svg11.dtd"><svg xmlns="http://www.w3.org/2000/svg" xmlns:xlink="http://www.w3.org/1999/xlink" version="1.1" id="mdi-archive" width="24" height="24" viewBox="0 0 24 24"><path d="M3,3H21V7H3V3M4,8H20V21H4V8M9.5,11A0.5,0.5 0 0,0 9,11.5V13H15V11.5A0.5,0.5 0 0,0 14.5,11H9.5Z" /></svg>
